icons/icon.svg

<?xml version="1.0" encoding="utf-8"?>
<svg xmlns="http://www.w3.org/2000/svg" viewBox="0 0 24 24" fill="none" stroke="#1a73e8" stroke-width="1.5" stroke-linecap="round" stroke-linejoin="round">
  <path d="M12 2l9 5v10l-9 5-9-5V7l9-5z"/>
  <path d="M 12 2 L 12 8 M 12 8 L 3 7 M 12 8 L 21 7 M 12 8 L 7 15 M 12 8 L 17 15 M 7 15 L 17 15 M 7 15 L 3 17 M 7 15 L 11.869 21.858 M 16.952 14.989 L 20.959 16.965 M 17 15 L 11.933 21.914"/>
</svg>

<svg xmlns="http://www.w3.org/2000/svg" viewBox="0 0 24 24" fill="none" stroke="#1a73e8" stroke-width="1.5" stroke-linecap="round" stroke-linejoin="round">
    <path d="M12 2l9 5v10l-9 5-9-5V7l9-5z" />
    <path d="M12 2v6m0 0l-9-1m9 1l9-1m-9 1l-5 7m5-7l5 7m-10 0h10m-10 0l-4 2m4-2l5 5m5-7l4 2m-4-2l-5 5" />
</svg>
